X:18404
T:Waltz fr Finland
R:Waltz
O:Finland
M:3/4
K:Dm
a2 ^gaba|f2 efgf|d2 ^cded|B4 d2|\
A3=B ^cd|ef g2e2|f3e df|e2 e^c A2|
a2 ^gaba|f2 efgf|d2 ^cded|B4 d2|\
A3 =B ^cd|efg2e2|d3 e d^c|d6::
a4 a2|^f2g2a2|b4 ba|g6|\
g3a gf|e2f2g2|a3b a^g|a6|\
f3g fe|d6|g4 a2|b6|
a2 ^ga ba|f4 e2|d3e d^c|d6::\
D3F Ad|A3F D2|F6|E6|G2A2B2|F4 G2|A3B A^G|A6|
d3^c de|f3e dA|c6|B6\
|1 A3BA2|F4 D2|E6|A6:|2 A4A2|^c4c2|d2^cd fe|d6||


